X: 31707
T: Pasucais D'Amieva
R: jig
M: 6/8
K: Dmajor
DFA|:dcB AFG|A3 ABA|1 FED DFA:|2 FED FGA||
|:E3 CEA|G2 F FGF|ECD DEE|1 E2 D FGA:|2 E2 D GB=c||
K:Emin
|:B2 B G2 G|FGA GBc|B2 B G2 G|DFA GBc|
B2 d- dAc|BGB dcB|AAA G2|1 F E2 GBc:|2 F E2||

